symbols/web/auto_stories/materialsymbolsoutlined/auto_stories_wght700gradN25_40px.svg

<svg xmlns="http://www.w3.org/2000/svg" height="40" width="40"><path d="M20.083 35.167q-2-1.542-4.354-2.542-2.354-1-4.896-1-1.625 0-3.146.437-1.52.438-2.979 1.188-1.375.667-2.666-.104Q.75 32.375.75 30.917V11.25q0-.958.417-1.792.416-.833 1.25-1.208 1.958-.917 4.041-1.375 2.084-.458 4.292-.458 2.458 0 4.812.646 2.355.645 4.438 1.979v21.791q2.125-1.375 4.458-2.145 2.334-.771 4.709-.771 1.458 0 3.125.312 1.666.313 3.25 1.104V7.417q.541.208 1.062.395.521.188 1.063.438.833.375 1.208 1.208.375.834.375 1.75v20.25q0 1.334-1.292 1.917-1.291.583-2.708-.125-1.417-.75-2.958-1.188-1.542-.437-3.125-.437-2.5 0-4.792 1t-4.292 2.542Zm2.709-8.375V10.708l10-10.25V17.75ZM16.292 29V11.375q-1.167-.667-2.688-.958-1.521-.292-2.771-.292-1.833 0-3.437.354-1.604.354-2.938.896v17.958q1.459-.666 3.042-1.041 1.583-.375 3.333-.375 1.542 0 2.938.271 1.396.27 2.521.812Zm0 0V11.333Z"/></svg>

<svg xmlns="http://www.w3.org/2000/svg" height="40" width="40"><path d="M20.083 35.167Q18.083 33.625 15.729 32.625Q13.375 31.625 10.833 31.625Q9.208 31.625 7.687 32.062Q6.167 32.5 4.708 33.25Q3.333 33.917 2.042 33.146Q0.75 32.375 0.75 30.917V11.25Q0.75 10.292 1.167 9.458Q1.583 8.625 2.417 8.25Q4.375 7.333 6.458 6.875Q8.542 6.417 10.75 6.417Q13.208 6.417 15.562 7.063Q17.917 7.708 20 9.042V30.833Q22.125 29.458 24.458 28.688Q26.792 27.917 29.167 27.917Q30.625 27.917 32.292 28.229Q33.958 28.542 35.542 29.333Q35.542 29.333 35.542 29.333Q35.542 29.333 35.542 29.333V7.417Q36.083 7.625 36.604 7.812Q37.125 8 37.667 8.25Q38.5 8.625 38.875 9.458Q39.25 10.292 39.25 11.208V31.458Q39.25 32.792 37.958 33.375Q36.667 33.958 35.25 33.25Q33.833 32.5 32.292 32.062Q30.75 31.625 29.167 31.625Q26.667 31.625 24.375 32.625Q22.083 33.625 20.083 35.167ZM22.792 26.792V10.708L32.792 0.458V17.75ZM16.292 29V11.375Q15.125 10.708 13.604 10.417Q12.083 10.125 10.833 10.125Q9 10.125 7.396 10.479Q5.792 10.833 4.458 11.375Q4.458 11.375 4.458 11.375Q4.458 11.375 4.458 11.375V29.333Q4.458 29.333 4.458 29.333Q4.458 29.333 4.458 29.333Q5.917 28.667 7.5 28.292Q9.083 27.917 10.833 27.917Q12.375 27.917 13.771 28.188Q15.167 28.458 16.292 29ZM16.292 29Q16.292 29 16.292 29Q16.292 29 16.292 29Q16.292 29 16.292 29Q16.292 29 16.292 29Q16.292 29 16.292 29Q16.292 29 16.292 29V11.333Q16.292 11.333 16.292 11.333Q16.292 11.333 16.292 11.333Q16.292 11.333 16.292 11.333Q16.292 11.333 16.292 11.333Q16.292 11.333 16.292 11.333Q16.292 11.333 16.292 11.333Z"/></svg>
